Numix/16/status/state-ok.svg

<?xml version="1.0" encoding="UTF-8" standalone="no"?>
<!-- Created with Inkscape (http://www.inkscape.org/) -->

<svg
   xmlns:dc="http://purl.org/dc/elements/1.1/"
   xmlns:cc="http://creativecommons.org/ns#"
   xmlns:rdf="http://www.w3.org/1999/02/22-rdf-syntax-ns#"
   xmlns:svg="http://www.w3.org/2000/svg"
   xmlns="http://www.w3.org/2000/svg"
   xmlns:sodipodi="http://sodipodi.sourceforge.net/DTD/sodipodi-0.dtd"
   xmlns:inkscape="http://www.inkscape.org/namespaces/inkscape"
   id="svg9065"
   version="1.1"
   inkscape:version="0.91 r"
   width="16"
   height="16"
   sodipodi:docname="state-ok.svg">
  <metadata
     id="metadata9071">
    <rdf:RDF>
      <cc:Work
         rdf:about="">
        <dc:format>image/svg+xml</dc:format>
        <dc:type
           rdf:resource="http://purl.org/dc/dcmitype/StillImage" />
        <dc:title />
      </cc:Work>
    </rdf:RDF>
  </metadata>
  <defs
     id="defs9069" />
  <sodipodi:namedview
     pagecolor="#ffffff"
     bordercolor="#666666"
     borderopacity="1"
     objecttolerance="10"
     gridtolerance="10"
     guidetolerance="10"
     inkscape:pageopacity="0"
     inkscape:pageshadow="2"
     inkscape:window-width="1366"
     inkscape:window-height="747"
     id="namedview9067"
     showgrid="true"
     inkscape:zoom="11.313709"
     inkscape:cx="-12.128499"
     inkscape:cy="-1.7297293"
     inkscape:window-x="0"
     inkscape:window-y="21"
     inkscape:window-maximized="1"
     inkscape:current-layer="svg9065"
     showguides="true"
     inkscape:guide-bbox="true">
    <inkscape:grid
       type="xygrid"
       id="grid3065" />
  </sodipodi:namedview>
  <g
     transform="matrix(0.04789028,0,0,0.04977947,-8.6106479,1.5318218)"
     id="g3003"
     style="fill:#ececec;fill-opacity:1;stroke:none">
    <path
       style="fill:#ececec;fill-opacity:1;stroke:none"
       d="M 10.1875,4 C 9.2200956,4 8.3990682,4.5886096 8,5.4375 7.7697724,5.2424181 7.4759609,5.125 7.15625,5.125 6.4168238,5.125 5.8125,5.7598171 5.8125,6.53125 c 0,0.2987722 0.096865,0.5853905 0.25,0.8125 -0.5177565,0.3443344 -0.9036631,0.8776712 -1.09375,1.5 C 4.8764994,8.8327661 4.7825686,8.8125 4.6875,8.8125 3.3330975,8.8125 2.25,9.9619712 2.25,11.375 c 0,1.413029 1.0830975,2.5625 2.4375,2.5625 0.2525628,0 0.4885487,-0.0497 0.71875,-0.125 l 1.125,-1.09375 c 0.3612972,-0.373423 0.9199528,-0.373423 1.28125,0 l 0.625,0.625 c 0.082958,-0.124157 0.1417664,-0.259703 0.1875,-0.40625 0.4341268,0.441546 0.9781411,0.758762 1.59375,0.90625 L 14.40625,6.5625 C 13.982641,6.2112442 13.454659,6 12.875,6 12.77948,6 12.686423,6.0201631 12.59375,6.03125 12.365082,4.8654092 11.37257,4 10.1875,4 Z M 17.28125,9.34375 14.625,13.875 c 0.242503,0.07697 0.484266,0.125 0.75,0.125 0.716951,0 1.366541,-0.29886 1.84375,-0.78125 0.254732,0.368125 0.656558,0.59375 1.125,0.59375 0.77463,0 1.40625,-0.62934 1.40625,-1.4375 0,-0.80816 -0.63162,-1.46875 -1.40625,-1.46875 -0.119612,0 -0.232904,0.0019 -0.34375,0.03125 -0.06376,-0.618956 -0.331808,-1.1653706 -0.71875,-1.59375 z"
       transform="matrix(15.186172,0,0,14.5561,179.80011,-15.961411)"
       id="circle265"
       inkscape:connector-curvature="0"
       sodipodi:nodetypes="scssccssscccccccscsccscssscc" />
  </g>
  <path
     style="fill:#ececec;fill-opacity:1;stroke:#ececec;stroke-width:0.30000001;stroke-linejoin:round;stroke-miterlimit:4;stroke-dasharray:none;stroke-opacity:1"
     d="M 4.269892,11.385629 7.6125667,14.716009 12.883707,5.6215122 11.630204,4.8849861 7.2911557,12.346316 5.2984074,10.360898 4.269892,11.385629 Z"
     id="rect5629-8-1"
     inkscape:connector-curvature="0" />
</svg>

<!-- Created with Inkscape (http://www.inkscape.org/) -->
<svg xmlns="http://www.w3.org/2000/svg" viewBox="0 0 16 16">
 <g transform="matrix(0.04789028,0,0,0.04977947,-8.6106479,1.5318218)" style="fill:#ececec;fill-opacity:1;stroke:none">
  <path d="m 10.188 4 c -0.967 0 -1.788 0.589 -2.188 1.438 -0.23 -0.195 -0.524 -0.313 -0.844 -0.313 -0.739 0 -1.344 0.635 -1.344 1.406 c 0 0.299 0.097 0.585 0.25 0.813 -0.518 0.344 -0.904 0.878 -1.094 1.5 c -0.092 -0.011 -0.186 -0.031 -0.281 -0.031 -1.354 0 -2.438 1.149 -2.438 2.563 c 0 1.413 1.083 2.563 2.438 2.563 0.253 0 0.489 -0.05 0.719 -0.125 l 1.125 -1.094 c 0.361 -0.373 0.92 -0.373 1.281 0 l 0.625 0.625 c 0.083 -0.124 0.142 -0.26 0.188 -0.406 0.434 0.442 0.978 0.759 1.594 0.906 l 4.188 -7.281 c -0.424 -0.351 -0.952 -0.563 -1.531 -0.563 -0.096 0 -0.189 0.02 -0.281 0.031 -0.229 -1.166 -1.221 -2.031 -2.406 -2.031 m 7.094 5.344 -2.656 4.531 c 0.243 0.077 0.484 0.125 0.75 0.125 0.717 0 1.367 -0.299 1.844 -0.781 0.255 0.368 0.657 0.594 1.125 0.594 0.775 0 1.406 -0.629 1.406 -1.438 0 -0.808 -0.632 -1.469 -1.406 -1.469 -0.12 0 -0.233 0.002 -0.344 0.031 -0.064 -0.619 -0.332 -1.165 -0.719 -1.594 z" transform="matrix(15.186172,0,0,14.5561,179.80011,-15.961411)"/>
 </g>
 <path d="m 4.27 11.386 3.343 3.33 5.271 -9.09 -1.254 -0.737 -4.339 7.461 -1.993 -1.985 -1.029 1.025" style="stroke-dasharray:none;stroke-opacity:1;fill:#ececec;stroke-miterlimit:4;fill-opacity:1;stroke:#ececec;stroke-linejoin:round;stroke-width:0.3"/>
</svg>
